src/helpers/heroicons/outline/chat-bubble-left-right.svg

<svg width="24" height="24" viewBox="0 0 24 24" fill="none" xmlns="http://www.w3.org/2000/svg">
<path d="M20.25 8.51104C21.1341 8.79549 21.75 9.6392 21.75 10.6082V14.8938C21.75 16.0304 20.9026 16.9943 19.7697 17.0867C19.4308 17.1144 19.0909 17.1386 18.75 17.1592V20.25L15.75 17.25C14.3963 17.25 13.0556 17.1948 11.7302 17.0866C11.4319 17.0623 11.1534 16.9775 10.9049 16.8451M20.25 8.51104C20.0986 8.46232 19.9393 8.43 19.7739 8.41628C18.4472 8.30616 17.1051 8.25 15.75 8.25C14.3948 8.25 13.0528 8.30616 11.7261 8.41627C10.595 8.51015 9.75 9.47323 9.75 10.6082V14.8937C9.75 15.731 10.2099 16.4746 10.9049 16.8451M20.25 8.51104V6.63731C20.25 5.01589 19.0983 3.61065 17.4903 3.40191C15.4478 3.13676 13.365 3 11.2503 3C9.13533 3 7.05233 3.13678 5.00963 3.40199C3.40173 3.61074 2.25 5.01598 2.25 6.63738V12.8626C2.25 14.484 3.40173 15.8893 5.00964 16.098C5.58661 16.1729 6.16679 16.2376 6.75 16.2918V21L10.9049 16.8451"  stroke-width="1.5" stroke-linecap="round" stroke-linejoin="round"/>
</svg>

<svg xmlns="http://www.w3.org/2000/svg" fill="none" viewBox="0 0 24 24" stroke-width="1.5" stroke="currentColor" aria-hidden="true" data-slot="icon">
  <path stroke-linecap="round" stroke-linejoin="round" d="M20.25 8.511c.884.284 1.5 1.128 1.5 2.097v4.286c0 1.136-.847 2.1-1.98 2.193-.34.027-.68.052-1.02.072v3.091l-3-3c-1.354 0-2.694-.055-4.02-.163a2.115 2.115 0 0 1-.825-.242m9.345-8.334a2.126 2.126 0 0 0-.476-.095 48.64 48.64 0 0 0-8.048 0c-1.131.094-1.976 1.057-1.976 2.192v4.286c0 .837.46 1.58 1.155 1.951m9.345-8.334V6.637c0-1.621-1.152-3.026-2.76-3.235A48.455 48.455 0 0 0 11.25 3c-2.115 0-4.198.137-6.24.402-1.608.209-2.76 1.614-2.76 3.235v6.226c0 1.621 1.152 3.026 2.76 3.235.577.075 1.157.14 1.74.194V21l4.155-4.155"/>
</svg>
